icons/svg/private-circle_14.svg

<?xml version="1.0" encoding="UTF-8"?>
<svg width="14px" height="14px" viewBox="0 0 14 14" version="1.1" xmlns="http://www.w3.org/2000/svg" xmlns:xlink="http://www.w3.org/1999/xlink">
    <!-- Generator: Sketch 60.1 (88133) - https://sketch.com -->
    <title>alerts-and-notifications/private-circle_14</title>
    <desc>Created with Sketch.</desc>
    <g id="alerts-and-notifications/private-circle_14" stroke="none" stroke-width="1" fill="none" fill-rule="evenodd">
        <path d="M7,0 C3.134,0 0,3.134 0,7 C0,10.866 3.134,14 7,14 C10.866,14 14,10.866 14,7 C14,3.134 10.866,0 7,0 M7,13 C3.691,13 1,10.309 1,7 C1,3.691 3.691,1 7,1 C10.309,1 13,3.691 13,7 C13,10.309 10.309,13 7,13 M8.4746,3.2729 C7.3706,3.2729 6.4746,4.1689 6.4746,5.2729 C6.4746,5.6429 6.5816,5.9849 6.7576,6.2829 L4.1206,8.9189 C3.9256,9.1149 3.9256,9.4309 4.1206,9.6269 L5.1206,10.6269 C5.2186,10.7239 5.3466,10.7729 5.4746,10.7729 C5.6026,10.7729 5.7306,10.7239 5.8286,10.6269 L6.8286,9.6269 C7.0236,9.4309 7.0236,9.1149 6.8286,8.9189 L6.1816,8.2729 L7.4646,6.9899 C7.7616,7.1659 8.1046,7.2729 8.4746,7.2729 C9.5786,7.2729 10.4746,6.3769 10.4746,5.2729 C10.4746,4.1689 9.5786,3.2729 8.4746,3.2729 L8.4746,3.2729 Z M5.4746,9.5659 L5.1816,9.2729 L5.4746,8.9799 L5.7676,9.2729 L5.4746,9.5659 Z M8.4746,6.2729 C7.9236,6.2729 7.4746,5.8239 7.4746,5.2729 C7.4746,4.7219 7.9236,4.2729 8.4746,4.2729 C9.0266,4.2729 9.4746,4.7219 9.4746,5.2729 C9.4746,5.8239 9.0266,6.2729 8.4746,6.2729 L8.4746,6.2729 Z" id="fill" fill="#171B1F"></path>
    </g>
</svg>

<svg width="14" height="14" viewBox="0 0 14 14" xmlns="http://www.w3.org/2000/svg"><title>alerts-and-notifications/private-circle_14</title><path d="M7 13c-3.309 0-6-2.691-6-6 0-3.309 2.691-6 6-6 3.309 0 6 2.691 6 6 0 3.309-2.691 6-6 6M7 0c3.866 0 7 3.134 7 7 0 3.866-3.134 7-7 7-3.866 0-7-3.134-7-7 0-3.866 3.134-7 7-7zm1.4746 6.2729c-.551 0-1-.449-1-1 0-.551.449-1 1-1 .552 0 1 .449 1 1 0 .551-.448 1-1 1zm-3 3.293l-.293-.293.293-.293.293.293-.293.293zm3-6.293c-1.104 0-2 .896-2 2 0 .37.107.712.283 1.01l-2.637 2.636c-.195.196-.195.512 0 .708l1 1c.098.097.226.146.354.146.128 0 .256-.049.354-.146l1-1c.195-.196.195-.512 0-.708l-.647-.646 1.283-1.283c.297.176.64.283 1.01.283 1.104 0 2-.896 2-2 0-1.104-.896-2-2-2z" fill-rule="evenodd"/></svg>
